X:1
T: Miss Wharton Duff's Jig
C:William Marshall
R:Jig
Q:180
K:Bb
M:6/8
L:1/16
|:(3fga|b2f2d2 g2e2c2|f2d2B2 e2c2A2|F2B2d2 F2c2e2|F2d2f2 A2G2F2|
b2f2d2 g2e2c2|f2d2B2 e2c2A2|F2B2d2 F2c2e2|1A2F2A2 B4:|2A2F2A2 B6|
|:B,2D2F2 B,2E2G2|F2B2d2 D2C2B,2|B2d2f2 B2e2g2|f2d2B2 A2G2F2|
b2f2d2 g2e2c2|f2d2B2 e2c2A2|F2B2d2 F2c2e2|1A2F2A2 B6:||2A2F2A2 B4||
